brandFactory_export/3.Masa/TK _3Masa.svg

<?xml version="1.0" encoding="UTF-8"?>
<svg width="24px" height="24px" viewBox="0 0 24 24" version="1.1" xmlns="http://www.w3.org/2000/svg" xmlns:xlink="http://www.w3.org/1999/xlink">
    <title>3.Masa/TK _3Masa</title>
    <g id="Symbols" stroke="none" stroke-width="1" fill="none" fill-rule="evenodd">
        <g id="3.Masa/TK-_3Masa" fill="#5CB615" fill-rule="nonzero">
            <path d="M19.892437,17.2840336 C19.805042,17.4352941 19.6470588,17.5294118 19.4722689,17.5294118 L18.9512605,17.5294118 C18.7831933,17.5294118 18.6252101,17.4386555 18.5378151,17.2941176 L15.4352941,12.1042017 L14.2016807,13.6470588 L14.2016807,17.0453782 C14.2016807,17.3109244 13.9865546,17.5294118 13.7176471,17.5294118 L13.2571429,17.5294118 C12.9915966,17.5294118 12.7731092,17.3142857 12.7731092,17.0453782 L12.7731092,6.57142857 C12.7731092,6.30588235 12.9882353,6.08739496 13.2571429,6.08739496 L13.7176471,6.08739496 C13.9831933,6.08739496 14.2016807,6.30252101 14.2016807,6.57142857 L14.2016807,11.4487395 L18.3159664,6.26890756 C18.4067227,6.15462185 18.5478992,6.08739496 18.6957983,6.08739496 L19.2302521,6.08739496 C19.4151261,6.08739496 19.5831933,6.19495798 19.6638655,6.35966387 C19.7445378,6.52773109 19.7210084,6.72605042 19.6067227,6.87058824 L16.3731092,10.9546218 L19.8890756,16.7932773 C19.9764706,16.9478992 19.9798319,17.1327731 19.892437,17.2840336 L19.892437,17.2840336 Z M11.8184874,7.09579832 C11.7680672,7.31764706 11.5731092,7.47226891 11.3478992,7.47226891 L8.49411765,7.47226891 L8.49411765,17.0487395 C8.49411765,17.3142857 8.2789916,17.5327731 8.01008403,17.5327731 L7.55294118,17.5327731 C7.28403361,17.5327731 7.06890756,17.3176471 7.06890756,17.0487395 L7.06890756,7.47226891 L4.1512605,7.47226891 C3.88571429,7.47226891 3.66722689,7.25714286 3.66722689,6.98823529 L3.66722689,6.57478992 C3.66722689,6.3092437 3.88235294,6.0907563 4.1512605,6.0907563 L11.4386555,6.0907563 C11.5831933,6.0907563 11.7243697,6.15798319 11.8151261,6.27226891 C11.9058824,6.38655462 11.9428571,6.53445378 11.9092437,6.6789916 L11.8184874,7.09579832 Z M11.8084034,0 C4.08403361,0 0,4.08403361 0,11.8151261 C0,19.5394958 4.08403361,23.6235294 11.8084034,23.6235294 C19.5394958,23.6235294 23.6235294,19.5394958 23.6235294,11.8151261 C23.6235294,4.08403361 19.5394958,0 11.8084034,0 Z" id="TK-_3Masa"></path>
        </g>
    </g>
</svg>

<svg width="24" height="24" viewBox="0 0 24 24" xmlns="http://www.w3.org/2000/svg"><path d="M19.892 17.284a.485.485 0 01-.42.245h-.52a.487.487 0 01-.414-.235l-3.103-5.19-1.233 1.543v3.398a.484.484 0 01-.484.484h-.46a.484.484 0 01-.485-.484V6.571c0-.265.215-.484.484-.484h.46c.266 0 .485.216.485.484v4.878l4.114-5.18a.486.486 0 01.38-.182h.534c.185 0 .353.108.434.273a.485.485 0 01-.057.51l-3.234 4.085 3.516 5.838c.087.155.09.34.003.491zM11.818 7.096a.482.482 0 01-.47.376H8.494v9.577a.484.484 0 01-.484.484h-.457a.482.482 0 01-.484-.484V7.472H4.15a.484.484 0 01-.484-.484v-.413c0-.266.215-.484.484-.484h7.288a.485.485 0 01.47.588l-.09.417zM11.808 0C4.084 0 0 4.084 0 11.815c0 7.724 4.084 11.809 11.808 11.809 7.731 0 11.816-4.085 11.816-11.809C23.624 4.084 19.539 0 11.808 0z" fill="#5CB615" fill-rule="nonzero"/></svg>
